X: 14733
T: Gan Ainm
R: polka
M: 2/4
K: Fmajor
C|C>A A>F|Ed c>c|c>G G>B|Af c>C|
C>A A>F|Ed c>c|c>G G>A|Ff F||
K: CMajor
d|d>f f>f|e>f g>g|a>f f>f|g>f e>e|
d>f f>f|e>f g>g|a>f f>d|cf c||
K: Gminor
F|FE/F/ G/A/B/c/|dd ed|d/c/B/B/ d/c/B/B/|c g2 f|
FE/F/ G/A/B/c/|d e2 d|d/c/B cg/f/|Bd B||

